X:1
T:In too deep
C:Genesis
Z:All Rights Reserved
L:1/8
M:4/4
K:Ab
V:1 treble nm="[Alto Saxophone]"
%%MIDI program 65
V:1
"Bbm7" D2>D2- D2>D2 |"Cm7" E2>G2 BcBG |"Dbmaj7" c2>A2- A2 EF |"Eb" B2>B2- BG B2 |:"Fm" z2 ff fece | %5
w: ||||All that time I was searching,|
w: ||||Oh I know you're go- ing|
w: |||||
"Db" c2zF BAcB- |"Bbm7" Bcz2z2zF |"Eb" BBcB Bc z2 |"Fm" z4 agff | e2 cc- cAcB- |"Db" B/A/F z2 z4 | %11
w: _ with no- where to run|_ to it|start- ed me _ think- ing|wond'- ring what I|_ could make _ of my life|_ _ _|
w: _ but I can't be- lieve|_ _ It'sthe|way that you're * leav- ing|it's like we never|knew each oth- _ er at all|_ _ _|
w: ||||||
"Bbm"zB cB"Eb" Bc z2 |"Fm" z2 ff fece |"Db" c2z2zA cB- |"Bbm" Bcz2zA BA |"Eb" B2cB B>A F2 | %16
w: and who'd be wait- ing|* ing all kinds of quest-|ions to my- self|_ _ but ne- ver|find- ing the ans- wers _|
w: it may- be my fault|* you too ma- ny rea-|sons be- ing a-|lone _ _ _ when|I didn't _ want to _|
w: |||||
"Fm7" z4 _c'baf | affe f2"Db" z2 |z6zA |"Bbm7" B2 c2"Eb" e>f- f<e |S"Bbm7"zF FF F-FcB- | %21
w: cry- ing at the|top of my _ voice|and|no- one list- ening _ _|_ _ _ _ all this time|
w: I thought you'd al-|ways be there _ _|I|al- most be- lieved _ you|_ _ _ _ all this time|
w: ||||it seems I've spent _ too _|
"Cm7" Bcz2zB cc |"Dbmaj7" BAAA A2 c2 |"Eb" B2z2>c2 B/A/F |"Bbm7"zF AA A-cAB- | B"Cm7" c2c- cB z2 | %26
w: _ _ I still re-|mem- ber eve- ry- thing you|said oh oh _ _|_ _ _ _ there's so much|_ you pro- mised _|
w: _ _ I still re-|mem- ber eve- ry thing you|said oh oh _ _|_ _ _ _ there's so much|_ you pro- mised _|
w: long _ _ on- ly|think- ing a- bout _ my-|self oh oh _ _|and now I want _ to spend|_ my life _ just|
"Db"zA AA AA e2 |"Eb" e2z2zB A z |"Ab"zA AB BAAA |"Db" F2 FE"Cm7" E2 A2 |"Ab"zA AB BAAA | %31
w: how could I ev- er for-|get Lis- ten|you know I love you but I|just can't _ take this|you know I love you but I'm|
w: how could I ev- er for-|get * *||||
w: car- ing bout some- body _|else * *||||
"Db" AA e2"Cm7" e2 z2 |"Ab"zA AB BAzE |"Db" F2 FE"Cm7" E2 A2 |"Ab"zA AB BAAA | %35
w: play- ing for keeps|al- though I need you I'm|not gon- na make this|you know I want to but I'm|
w: ||||
w: ||||
"Db" A2 e2"Cm7" e2 z2 |"Bbm7"z4z3F/G/ | AA z2"Eb/Bb" BBA"Bbm7"A |1 FF z6 | %39
w: in too deep|So _|lis- ten lis- ten _ to|_ me|
w: ||||
w: ||||
 A2 c2"Eb/Bb" B2 B"Bbm7"c- | c/A/F/B/- B/A/F2<z2E/F/ | A2 c2"Eb/Bb" B2"Bbm7" BA | FFz2z3E/F/ | %43
w: oh you must be- lieve|_ _ _ me _ _ _ I can|feel your eyes go through|_ me but I|
w: ||||
w: ||||
"Bbm7" A2 c2"Eb/Db" e2 z2 :|2 FF z2 z2 EF |"Bbm7" A2 c2"Eb/Db" B>A- AB ||"F" c2 z2 z2 =AB | %47
w: don't know why|_ me I can|feel your eyes go _ though|me. * *|
w: ||||
w: ||||
"Bb" c2 f2 c2 B=A- | =AF- F4AB |"Eb" c2 e2 c2 B"Ab"c- | cAcA"F"zc =AB |"Bb" c2 f2 c2 B=A- | %52
w: |||||
w: |||||
w: |||||
 =AF- F4AB |"Eb" c2 e2 c2 B"Ab"c- | cAcA"F"z=A c=d |"Eb" e2 =d2 c2 B"Ab"c- | cAcA EAc=d | %57
w: |||||
w: |||||
w: |||||
"Fm7/C" e2"_D.S. and Repeat Chorus and FADE" f2 c2"Cm7" B2 |] %58
w: |
w: |
w: |

